src/assets/svg/icons/fa/nuevos/classic/duotone/card-club classic duotone.svg

<svg xmlns="http://www.w3.org/2000/svg" viewBox="0 0 384 512"><!--! Font Awesome Pro 6.4.0 by @fontawesome - https://fontawesome.com License - https://fontawesome.com/license (Commercial License) Copyright 2023 Fonticons, Inc. --><defs><style>.fa-secondary{opacity:.4}</style></defs><path class="fa-primary" d="M253.9 208.3c1.4-5.2 2.1-10.7 2.1-16.3c0-35.3-28.7-64-64-64s-64 28.7-64 64c0 5.6 .7 11.1 2.1 16.3C101.9 211.3 80 235.1 80 264c0 30.9 25.1 56 56 56c15.7 0 29.8-6.4 40-16.8V336H160c-8.8 0-16 7.2-16 16s7.2 16 16 16h64c8.8 0 16-7.2 16-16s-7.2-16-16-16H208V303.2c10.2 10.4 24.3 16.8 40 16.8c30.9 0 56-25.1 56-56c0-28.9-21.9-52.7-50.1-55.7z"/><path class="fa-secondary" d="M0 64C0 28.7 28.7 0 64 0H320c35.3 0 64 28.7 64 64V448c0 35.3-28.7 64-64 64H64c-35.3 0-64-28.7-64-64V64zM130.1 208.3C101.9 211.3 80 235.1 80 264c0 30.9 25.1 56 56 56c15.7 0 29.8-6.4 40-16.8V336H160c-8.8 0-16 7.2-16 16s7.2 16 16 16h64c8.8 0 16-7.2 16-16s-7.2-16-16-16H208V303.2c10.2 10.4 24.3 16.8 40 16.8c30.9 0 56-25.1 56-56c0-28.9-21.9-52.7-50.1-55.7c1.4-5.2 2.1-10.7 2.1-16.3c0-35.3-28.7-64-64-64s-64 28.7-64 64c0 5.6 .7 11.1 2.1 16.3z"/></svg>

<svg xmlns="http://www.w3.org/2000/svg" viewBox="0 0 384 512"><defs><style>.fa-secondary{opacity:.4}</style></defs><path class="fa-primary" d="M304 264C304 294.9 278.9 320 248 320C232.3 320 218.2 313.6 208 303.2V336H224C232.8 336 240 343.2 240 352C240 360.8 232.8 368 224 368H160C151.2 368 144 360.8 144 352C144 343.2 151.2 336 160 336H176V303.2C165.8 313.6 151.7 320 136 320C105.1 320 80 294.9 80 264C80 235.1 101.9 211.3 130.1 208.3C128.7 203.1 128 197.6 128 192C128 156.7 156.7 128 192 128C227.3 128 256 156.7 256 192C256 197.6 255.3 203.1 253.9 208.3C282.1 211.3 304 235.1 304 264z"/><path class="fa-secondary" d="M0 64C0 28.65 28.65 0 64 0H320C355.3 0 384 28.65 384 64V448C384 483.3 355.3 512 320 512H64C28.65 512 0 483.3 0 448V64zM80 264C80 294.9 105.1 320 136 320C151.7 320 165.8 313.6 176 303.2V336H160C151.2 336 144 343.2 144 352C144 360.8 151.2 368 160 368H224C232.8 368 240 360.8 240 352C240 343.2 232.8 336 224 336H208V303.2C218.2 313.6 232.3 320 248 320C278.9 320 304 294.9 304 264C304 235.1 282.1 211.3 253.9 208.3C255.3 203.1 256 197.6 256 192C256 156.7 227.3 128 192 128C156.7 128 128 156.7 128 192C128 197.6 128.7 203.1 130.1 208.3C101.9 211.3 80 235.1 80 264z"/></svg>
